X: 1214
T: The First Month of Summer
M:C|
L:1/8
R:Reel
B:O'Neill's 1214
N:Collected by F. O'Neill
Z:Transcribed by Trish O'Neil
K:A
(ed)||cAFA EFEC|EAdc BdcB|AF (3FFF EFEC|EAGB AdcB|
cAFA EFEC|EAdc Bcdf|ecBc AFEC|EAGB"End "A2(cd)||
eA (3AAA ecfc|ec (3ccc feaf|eA (3AAA ecfe|dcBA GABc|
eA (3AAA ecfc|ecde fefg|agab agfe|dcBA GB"DC"ed||


